X: 1
T: the Duke of Fife's Welcome to Deeside
C: J. Scott Skinner
N: "Colin's Arrangement"
F: http://richardrobinson.tunebook.org.uk/tune/2541
S: handwritten page from Barbara McOwen in the Concord Slow Scottish Session collection
M: 4/4
L: 1/8
O: Scotland
R: March
Z: Richard Robinson
K: A
E2 "A"|\
"A"E2A2 A2Bc | "E"TB2A2 "A"A2Bc | "D"d2ef "A"e2a2 | "Bm"ecAc "E7"B2E2 |\
"A"E2A2 "F#m"A2Bc | "E"TB2A2 "A"A2Bc | "D"d2ef "E7"ecBc | "A" A4 A2 :|
cd "B1"|\
"A"e2cA a2ga | "D"f2a2 "A"e2c2 | "Bm"d2ef "A"e2a2 | "A"ecAc "E7"B2cd |\
"A"e2cA a2ga | "D"f2a2 "A"e2c2 | "Bm"d2ef "E7"ecBc | "A"A4 A2 |]
cd "B2"|\
"A"e2cA a2ga | "D"f2a2 "A"e2c2 | "Bm"d2ef "A"ecAa | "A"ecAc "E7"B2E2 |\
"A"E2A2 "F#m"A2Bc | "E"B2A2 "F#m"A2Bc | "D"d2ef "E7"ecBc | "A"A4 A2 |]
